themes/mercury/dist/images/svg/logo.svg

<svg xmlns="http://www.w3.org/2000/svg" width="198" height="46" viewBox="0 0 198 46">
  <path d="M22.9246,-9.99999998e-05 C33.8106,0.0079 45.2706,4.9239 45.2706,4.9239 L45.2706,4.9239 L45.2706,45.3779 L-0.0004,45.3779 L-0.0004,24.5079 L11.4616,24.5079 L11.4616,33.9609 L33.8106,33.9609 L33.8106,12.9849 C30.5686,12.0959 26.7086,11.4869 22.6356,11.4589 C18.5616,11.4869 14.7026,12.0959 11.4616,12.9849 L11.4616,12.9849 L11.4386,12.9899 L-0.0004,4.9239 C-0.0004,4.9239 11.4386,0.0079 22.3476,0.0079 L22.3476,0.0079 C22.4446,-9.99999998e-05 22.5396,0.0029 22.6356,0.0029 C22.7326,0.0029 22.8276,-9.99999998e-05 22.9246,-9.99999998e-05 L22.9246,-9.99999998e-05 Z M97.8762,10.0004 C105.7822,10.0004 111.2032,15.9404 111.2032,23.8484 C111.2032,31.7564 105.7822,37.6964 97.8762,37.6964 C89.9692,37.6964 84.5902,31.7564 84.5902,23.8484 C84.5902,15.9404 89.9692,10.0004 97.8762,10.0004 Z M159.4382,10.0011 C163.4922,10.0011 166.6632,11.4061 168.9112,13.7741 L166.9042,16.2211 C164.8952,13.9751 162.0852,13.0121 159.1572,13.0121 C155.9862,13.0121 153.6582,14.7361 153.6582,17.2641 C153.6582,23.2871 169.5112,19.8331 169.5112,29.8281 C169.5112,33.6821 166.8642,37.6961 159.6392,37.6961 C155.0232,37.6961 151.5712,35.9301 149.3632,33.4411 L151.3702,30.8721 C153.0962,32.8791 155.9862,34.7251 159.7572,34.7251 C164.5362,34.7251 166.0612,32.1561 166.0612,30.0691 C166.0612,26.5755096 162.001363,25.8366169 157.990439,24.7211673 L157.418226,24.5589177 C153.706774,23.4832489 150.2062,21.9543289 150.2062,17.4651 C150.2062,13.0521 154.1402,10.0011 159.4382,10.0011 Z M78.311,10.443 L78.311,13.413 L69.802,13.413 L69.802,37.214 L66.47,37.214 L66.47,13.413 L58,13.413 L58,10.443 L78.311,10.443 Z M131.8681,10.4427 L142.6261,37.2147 L138.8131,37.2147 L136.4441,31.2337 L123.1181,31.2337 L120.7501,37.2147 L116.9361,37.2147 L127.7341,10.4427 L131.8681,10.4427 Z M197.5015,10.4427 L197.5015,13.4127 L188.9915,13.4127 L188.9915,37.2147 L185.6605,37.2147 L185.6605,13.4127 L177.1905,13.4127 L177.1905,10.4427 L197.5015,10.4427 Z M97.8762,12.9704 C91.8552,12.9704 88.0422,17.5864 88.0422,23.8484 C88.0422,30.0704 91.8552,34.7264 97.8762,34.7264 C103.8572,34.7264 107.7492,30.0704 107.7492,23.8484 C107.7492,17.5864 103.8572,12.9704 97.8762,12.9704 Z M129.7811,13.8527 L124.1211,28.3027 L135.4811,28.3027 L129.7811,13.8527 Z"/>
</svg>

<svg xmlns="http://www.w3.org/2000/svg" width="198" height="46"><path d="M22.925 0C33.81.008 45.27 4.924 45.27 4.924v40.454H0v-20.87h11.462v9.453H33.81V12.985a44.002 44.002 0 0 0-11.175-1.526 43.981 43.981 0 0 0-11.174 1.526l-.023.005-11.44-8.066S11.44.008 22.349.008c.097-.008.192-.005.288-.005.097 0 .192-.003.289-.003Zm74.951 10c7.906 0 13.327 5.94 13.327 13.848s-5.42 13.848-13.327 13.848-13.286-5.94-13.286-13.848S89.97 10 97.876 10Zm61.562.001c4.054 0 7.225 1.405 9.473 3.773l-2.007 2.447c-2.009-2.246-4.819-3.209-7.747-3.209-3.17 0-5.499 1.724-5.499 4.252 0 6.023 15.853 2.57 15.853 12.564 0 3.854-2.647 7.868-9.872 7.868-4.616 0-8.068-1.766-10.276-4.255l2.007-2.569c1.726 2.007 4.616 3.853 8.387 3.853 4.78 0 6.304-2.569 6.304-4.656 0-3.493-4.06-4.232-8.07-5.348l-.573-.162c-3.711-1.076-7.212-2.605-7.212-7.094 0-4.413 3.934-7.464 9.232-7.464Zm-81.127.442v2.97h-8.509v23.801H66.47V13.413H58v-2.97h20.311Zm53.557 0 10.758 26.772h-3.813l-2.369-5.981h-13.326l-2.368 5.98h-3.814l10.798-26.771h4.134Zm65.633 0v2.97h-8.51v23.802h-3.33V13.413h-8.47v-2.97h20.31ZM97.876 12.97c-6.02 0-9.834 4.616-9.834 10.878 0 6.222 3.813 10.878 9.834 10.878 5.981 0 9.873-4.656 9.873-10.878 0-6.262-3.892-10.878-9.873-10.878Zm31.905.883-5.66 14.45h11.36l-5.7-14.45Z"/></svg>
